modules/hawcons-stroke/icons/flashed-face-glasses.svg

<?xml version="1.0" encoding="UTF-8" standalone="no"?>
<svg width="32px" height="32px" viewBox="0 0 32 32" version="1.1" xmlns="http://www.w3.org/2000/svg" xmlns:xlink="http://www.w3.org/1999/xlink" xmlns:sketch="http://www.bohemiancoding.com/sketch/ns">
    <!-- Generator: Sketch 3.0.3 (7891) - http://www.bohemiancoding.com/sketch -->
    <title>icon 3 flashed face glasses</title>
    <desc>Created with Sketch.</desc>
    <defs></defs>
    <g id="Page-1" stroke="none" stroke-width="1" fill="none" fill-rule="evenodd" sketch:type="MSPage">
        <g id="icon-3-flashed-face-glasses" sketch:type="MSArtboardGroup" fill="#929292">
            <path d="M9.29735808,11.6962147 C9.78249147,10.6924171 10.8103843,10 12,10 C13.3062189,10 14.4174579,10.8348076 14.8292943,12 L18.1707057,12 C18.5825421,10.8348076 19.6937811,10 21,10 C22.1896157,10 23.2175085,10.6924171 23.7026419,11.6962147 L23.7026419,11.6962147 L26.1422247,10.2303654 C24.0906205,7.08159865 20.5384021,5 16.5,5 C12.4615979,5 8.90937946,7.08159865 6.85777526,10.2303654 L9.29735808,11.6962147 L9.29735808,11.6962147 Z M9.01546795,12.6934714 C9.00523959,12.7942566 9,12.8965164 9,13 C9,14.6568543 10.3431457,16 12,16 C13.6568543,16 15,14.6568543 15,13 L15,13 L18,13 C18,14.6568543 19.3431457,16 21,16 C22.6568543,16 24,14.6568543 24,13 C24,12.8965164 23.9947604,12.7942566 23.984532,12.6934714 L26.6511987,11.0911764 C27.5120192,12.7033827 28,14.5447043 28,16.5 C28,22.8512749 22.8512749,28 16.5,28 C10.1487251,28 5,22.8512749 5,16.5 C5,14.5447043 5.48798084,12.7033827 6.34880127,11.0911764 L9.01546795,12.6934714 L9.01546795,12.6934714 Z M16.5,29 C23.4035597,29 29,23.4035597 29,16.5 C29,9.59644029 23.4035597,4 16.5,4 C9.59644029,4 4,9.59644029 4,16.5 C4,23.4035597 9.59644029,29 16.5,29 L16.5,29 Z M12,15 C13.1045696,15 14,14.1045696 14,13 C14,11.8954304 13.1045696,11 12,11 C10.8954304,11 10,11.8954304 10,13 C10,14.1045696 10.8954304,15 12,15 L12,15 Z M21,15 C22.1045696,15 23,14.1045696 23,13 C23,11.8954304 22.1045696,11 21,11 C19.8954304,11 19,11.8954304 19,13 C19,14.1045696 19.8954304,15 21,15 L21,15 Z M12,14 C12.5522848,14 13,13.5522848 13,13 C13,12.4477152 12.5522848,12 12,12 C11.4477152,12 11,12.4477152 11,13 C11,13.5522848 11.4477152,14 12,14 L12,14 Z M21,14 C21.5522848,14 22,13.5522848 22,13 C22,12.4477152 21.5522848,12 21,12 C20.4477152,12 20,12.4477152 20,13 C20,13.5522848 20.4477152,14 21,14 L21,14 Z M16.5,24 C17.8807119,24 19,22.8807119 19,21.5 C19,20.1192881 17.8807119,19 16.5,19 C15.1192881,19 14,20.1192881 14,21.5 C14,22.8807119 15.1192881,24 16.5,24 L16.5,24 Z M16.5,23 C17.3284272,23 18,22.3284272 18,21.5 C18,20.6715728 17.3284272,20 16.5,20 C15.6715728,20 15,20.6715728 15,21.5 C15,22.3284272 15.6715728,23 16.5,23 L16.5,23 Z" id="flashed-face-glasses" sketch:type="MSShapeGroup"></path>
        </g>
    </g>
</svg>

<svg width="32" height="32" viewBox="0 0 32 32" xmlns="http://www.w3.org/2000/svg"><path d="M9.297 11.696A3 3 0 0 1 14.83 12h3.342a3.001 3.001 0 0 1 5.532-.304l2.44-1.466A11.49 11.49 0 0 0 16.5 5a11.49 11.49 0 0 0-9.642 5.23l2.44 1.466zm-.282.997A3 3 0 1 0 15 13h3a3 3 0 1 0 5.985-.307l2.666-1.602A11.45 11.45 0 0 1 28 16.5C28 22.851 22.851 28 16.5 28S5 22.851 5 16.5c0-1.955.488-3.797 1.349-5.409l2.666 1.602zM16.5 29C23.404 29 29 23.404 29 16.5S23.404 4 16.5 4 4 9.596 4 16.5 9.596 29 16.5 29zM12 15a2 2 0 1 0 0-4 2 2 0 0 0 0 4zm9 0a2 2 0 1 0 0-4 2 2 0 0 0 0 4zm-9-1a1 1 0 1 0 0-2 1 1 0 0 0 0 2zm9 0a1 1 0 1 0 0-2 1 1 0 0 0 0 2zm-4.5 10a2.5 2.5 0 1 0 0-5 2.5 2.5 0 0 0 0 5zm0-1a1.5 1.5 0 1 0 0-3 1.5 1.5 0 0 0 0 3z" fill="#929292" fill-rule="evenodd"/></svg>
